!!!COM:	Busnoys, Antoine
!!!CDT:	~1430///-1492/11/06
!!!OTL:	Joye me fuit
!!!AGN:	Song; Chanson
!!!SCT:	Bus3032
!!!SCA:	Bus3032
!!!voices:	3
**kern	**kern	**kern
*staff3	*staff2	*staff1
*Ivox	*Ivox	*Ivox
*I"Contratenor	*I"Tenor	*I"Cantus
*I'Ct	*I'T	*I'Cn
*clefF4	*clefGv2	*clefGv2
*k[b-]	*k[b-]	*k[b-]
*M2/1	*M2/1	*M2/1
*met(C|)	*met(C|)	*met(C|)
=1-	=1-	=1-
!!LO:TX:Z=16:t=Rondeau
1r	0r	0r
1D	.	.
=2	=2	=2
1E	0r	0r
1F	.	.
=3	=3	=3
0G	0r	1r
.	.	1d
=4	=4	=4
1G	0r	1e
1A	.	1f
=5	=5	=5
1B-	0r	1.g
[1G	.	.
.	.	2f
=6	=6	=6
1G]	0r	2e
.	.	2d
1F	.	[1d
=7	=7	=7
0E	0r	1d]
.	.	1c#i
=8	=8	=8
[0D	0r	1d
.	.	1d
=9	=9	=9
1D]	1r	1d
1BB-	1D	1d
=10	=10	=10
0AA	1E	1.c
.	1F	.
.	.	4B-
.	.	4A
=11	=11	=11
1.GG	1G	2.B-
.	.	4c
.	1G	2B-
4FF	.	4A
4EE	.	4G
=12	=12	=12
0DD	1A	2F#i
.	.	2E
.	1A	1F#i
=13	=13	=13
1r	0B-	0G
1EE	.	.
=14	=14	=14
1FF	1A	0r
2GG	[1G	.
[2BB-	.	.
=15	=15	=15
2BB-]	2G]	1G
2C	2E	.
1AA	1F#i	1A
=16	=16	=16
[0GG	1G	1B-
.	1r	1G
=17	=17	=17
0GG]	1r	1d
.	1G	1e
=18	=18	=18
0r	1A	1f
.	1B-	[1g
=19	=19	=19
[0GG	1G	2g]
.	.	2a
.	1d	[1b-
=20	=20	=20
1GG]	1e	2b-]
.	.	2a
[1D	1f	[1a
=21	=21	=21
0D]	1.d	2a]
.	.	2f
.	.	[1f
.	4c	.
.	4B-	.
=22	=22	=22
1F	1A	1f]
1E	1G	1g
=23	=23	=23
1D	1F	1a
1BB-	1G	[1b-
=24	=24	=24
0GG	0B-	2b-]
.	.	2g
.	.	[1g
=25	=25	=25
1r	0A	2g]
.	.	2f#i
1D	.	2f#i
.	.	2e
=26	=26	=26
1.E-	[0G	0g
4D	.	.
4C	.	.
=27	=27	=27
2BB-	0G]	1r
2.C	.	.
.	.	1g
4D	.	.
[2E-i	.	.
=28	=28	=28
4E-i]	1r	1g
4D	.	.
4C	.	.
4BB-	.	.
1AA	1F	1a
=29	=29	=29
0GG	1.G	1b-
.	.	1b-
.	2G	.
=30	=30	=30
0r	1G	1b-
.	1D	1a
=31	=31	=31
1.C	1.E	1.g
2AA	2F	2f
=32	=32	=32
1.GG	1G	2.e
.	.	4d
.	1G	[1d
[2BB-	.	.
=33	=33	=33
2BB-]	1G	2d]
4AA	.	2B-
4GG	.	.
1FF	1A	2c
.	.	4B-
.	.	4A
=34	=34	=34
2r	2B-	2G
2GG	1d	2B-
2AA	.	1A
2FF	2c	.
=35	=35	=35
2r	2B-	2G
2GG	2G	1d
2.FF#i	1A	.
.	.	4c
4EE	.	4d
=36	=36	=36
2.GG	2G	2e-i
.	1G	1d
4AA	.	.
2BB-	.	.
2C	2E	4c
.	.	4B-
=37	=37	=37
*k[b-e-]	*	*
0DN	0F#N	0AN
=38	=38	=38
1.D	0r	1.B-
2E-	.	4A
.	.	4G
=39	=39	=39
2F	0r	2A
2G	.	2B-
2A	.	2c
[2B-	.	[2d
=40	=40	=40
2B-]	0r	4d]
.	.	4G
4A	.	2B-
4G	.	.
2.F#i	.	1A
4Eni	.	.
=41	=41	=41
1.G	1r	0G
.	1d	.
2D	.	.
=42	=42	=42
1E-	2B-	0r
.	1c	.
1F	.	.
.	2A	.
=43	=43	=43
1G	1G	0r
1GG	1B-	.
=44	=44	=44
1AA	1c	0r
1BB-	[1d	.
=45	=45	=45
0GG	1d]	1G
.	1G	1B-
=46	=46	=46
0r	1A	1c
.	1B-	[1d
=47	=47	=47
1GG	0G	1d]
1BB-	.	1G
=48	=48	=48
1AA	1r	1A
[1GG	[1d	1B-
=49	=49	=49
1GG]	2d]	0G
.	2c	.
1BB-	2B-	.
.	4A	.
.	4G	.
=50	=50	=50
1FF	1A	1F
1EE-	2G	[1G
.	[2B-	.
=51	=51	=51
0GG	2B-]	2G]
.	2A	2A
.	2G	2.B-
.	4F	.
.	4E	4c
=52	=52	=52
0DD	2F	2A
.	1G	2G
.	.	1A
.	2F#i	.
=53	=53	=53
1GG	2G	0G
.	1d	.
1BB-	.	.
.	4c	.
.	4d	.
=54	=54	=54
1C	4e-i	1r
.	4d	.
.	4c	.
.	4B-	.
1D	1A	1f
=55	=55	=55
1E-	1r	1g
1F	1d	1a
=56	=56	=56
0G	1d	1b-
.	1e	1b-
=57	=57	=57
0D	1.f	1.a
.	4e	4g
.	4d	4f
=58	=58	=58
1AA	1c	1e
1BB-	2d	1d
.	[2B-	.
=59	=59	=59
1GG	2B-]	1r
.	2G	.
1FF	1A	1c
=60	=60	=60
2r	1G	2d
2GG	.	1B-
2EE-	1r	.
[2GG	.	2G
=61	=61	=61
2GG]	1c	1A
2FF	.	.
2GG	[1B-	1G
[2BB-	.	.
=62	=62	=62
4BB-]	2B-]	1.d
4AA	.	.
2FF	2A	.
2.GG	2B-	.
.	4A	2e
4FF	4G	.
=63	=63	=63
*k[b-]	*	*
0DD	2A	1f
.	2.B-	.
.	.	[1d
.	4c	.
.	[2d	.
=64	=64	=64
0GG	2d]	2d]
.	2c	2e-i
.	2B-	2d
.	4A	4c
.	4G	4B-
=65	=65	=65
0D	1F	1A
.	2G	2B-
.	[2A	[2A
=66	=66	=66
0AA	4A]	2A]
.	4G	.
.	2F	1d
.	1E	.
.	.	2c#i
=67	=67	=67
0DDl	0Dl	0dl
==	==	==
*-	*-	*-
!!!RDF**kern: l=long note in original notation
!!!RDF**kern: i=editorial accidental
!!!RDF**kern: N=signum congruentiae
!!!ENC:	Chris Gage 02-12-2015
!!!END:	2015/02/20/
!!!EED:	Jesse Rodin
!!!EEV:	2015/05/10/
!!!ONB:	Translated from MusicXML and edited on 2015/05/10/ by Craig Sapp
!!muse2ps: C^@{COM}^i2I150v95,95,150Q16
